!!!OTL: GESTERN ABEND IN DER STILLEN RUH
!!!ARE: Europa, Mitteleuropa, Deutschland, Rheinpfalz
!!!SCT: E0522D
!!!YEM: Copyright 1995, estate of Helmut Schaffrath.
**kern
*ICvox
*Ivox
*M4/4
*k[f#c#g#]
*A:
{8e
8e
=1
4.a
8a
8a
8cc#
8ee
8cc#
=2
8.cc#
16dd
4b
4r}
{8b
8cc#
=3
8.dd
16dd
8dd
8dd
8cc#
8b
8.cc#
16b
=4
8.b
16cc#
4a
4r}
{8a
8b
=5
8.cc#
16a
8.cc#
16a
4cc#
8dd
8cc#
=6
8.b
16g#
8.b
16g#
4b}
{8b
8dd
=7
8cc#
8a
8a
16a
16b
8cc#}
{8a
8.b
16g#
=8
8.b
16cc#
4a
4r}
==
!!!AGN: Liebes - Lied
!! +++ Zeile 264 (+Auftakt 265) "gefÅhlsmÑ·ig" auf 4/4 getrimmt! ++++
!!!ONB: ESAC (Essen Associative Code) Database: ERK1
!!!AMT: simple quadruple
!!!AIN: vox
!!!EED: Helmut Schaffrath
!!!EEV: 1.0
*-
